X:6544
T:Green Fields of Rossbeigh, The
T:Kerry Reel, The
R:reel
D:De Danann: Selected Jigs and Reels
Z:id:hn-reel-226
M:C|
K:Edor
BE~E2 BAFB|ABde fded|BE~E2 BAFA|BFAF EFGA|
~B3d BAFB|ABde fded|BE~E2 BAFA|BFAF E2FA:|
|:(3Bcd ef g2fe|dB~B2 dBAd|Bdef ~g3e|dBAF E2ef|
gfga gfeg|~f3g fedB|ABde fdec|dBAF E2FA:|
